icons/white/adbmanager.svg

<?xml version="1.0" encoding="UTF-8"?><svg id="a" xmlns="http://www.w3.org/2000/svg" viewBox="0 0 48 48"><defs><style>.b{fill:none;stroke:#fff;stroke-linecap:round;stroke-linejoin:round;}</style></defs><path class="b" d="M31.2974,14.6248v14.0968M31.2974,22.8707c0-1.9464,1.5778-3.5242,3.5242-3.5242h0c1.9464,0,3.5242,1.5778,3.5242,3.5242v2.3268c0,1.9464-1.5778,3.5242-3.5242,3.5242h0c-1.9464,0-3.5242-1.5778-3.5242-3.5242M27.5242,14.6248v14.0968M27.5242,25.1974c0,1.9464-1.5778,3.5242-3.5242,3.5242h0c-1.9464,0-3.5242-1.5778-3.5242-3.5242v-2.3268c0-1.9464,1.5778-3.5242,3.5242-3.5242h0c1.9464,0,3.5242,1.5778,3.5242,3.5242M16.7026,25.1974c0,1.9464-1.5778,3.5242-3.5242,3.5242h0c-1.9464,0-3.5242-1.5778-3.5242-3.5242v-2.3268c0-1.9464,1.5778-3.5242,3.5242-3.5242h0c1.9464,0,3.5242,1.5778,3.5242,3.5242M16.7026,19.3465v9.3752"/><path class="b" d="M38.5,5.5H9.5c-2.2091,0-4,1.7909-4,4v29c0,2.2091,1.7909,4,4,4h29c2.2091,0,4-1.7909,4-4V9.5c0-2.2091-1.7909-4-4-4Z"/></svg>

<svg id="Layer_2" data-name="Layer 2" xmlns="http://www.w3.org/2000/svg" viewBox="0 0 48 48"><defs><style>.cls-1{fill:none;stroke:#fff;stroke-linecap:round;stroke-linejoin:round;}</style></defs><path class="cls-1" d="M31.3,14.62v14.1m3.52,0h0A3.53,3.53,0,0,1,31.3,25.2V22.87a3.52,3.52,0,0,1,3.52-3.52h0a3.52,3.52,0,0,1,3.53,3.52V25.2A3.53,3.53,0,0,1,34.82,28.72Zm-7.3-14.1v14.1m-3.52,0h0a3.52,3.52,0,0,1-3.52-3.52V22.87A3.51,3.51,0,0,1,24,19.35h0a3.51,3.51,0,0,1,3.52,3.52V25.2A3.52,3.52,0,0,1,24,28.72Zm-10.82,0h0A3.53,3.53,0,0,1,9.65,25.2V22.87a3.52,3.52,0,0,1,3.53-3.52h0a3.52,3.52,0,0,1,3.52,3.52V25.2A3.53,3.53,0,0,1,13.18,28.72Zm3.52-9.37v9.37"/><path class="cls-1" d="M40.5,5.5H7.5a2,2,0,0,0-2,2v33a2,2,0,0,0,2,2h33a2,2,0,0,0,2-2V7.5A2,2,0,0,0,40.5,5.5Z"/></svg>
